X: 4
T: The Pinch Of Snuff
R: reel
M: 4/4
L: 1/8
K: Dmix
|afge d3B|ADFD EFGB|A3B =cBcd|eA (3B^cd efge|
afge d3B|ADFD EFGB|A3B =cBcd|eA (3B^cd efge||
|f2df afdf|f2df efge|f2df afdf|eA (3B^cd efge|
f2df afdf|f2df efge|fa~a2 afdf|eA (3B^cd efge||


Tune 2610	Setting 2610

